images/6604720.svg

<?xml version="1.0" encoding="UTF-8"?>
<svg xmlns="http://www.w3.org/2000/svg" xmlns:xlink="http://www.w3.org/1999/xlink" width="300pt" height="300pt" viewBox="0 0 300 300" version="1.1">
<defs>
<g>
<symbol overflow="visible" id="glyph0-0">
<path style="stroke:none;" d="M 0.453125 1.59375 L 0.453125 -6.34375 L 4.953125 -6.34375 L 4.953125 1.59375 Z M 0.953125 1.09375 L 4.453125 1.09375 L 4.453125 -5.84375 L 0.953125 -5.84375 Z M 0.953125 1.09375 "/>
</symbol>
<symbol overflow="visible" id="glyph0-1">
<path style="stroke:none;" d="M 3.546875 -5.953125 C 2.898438 -5.953125 2.382812 -5.710938 2 -5.234375 C 1.625 -4.753906 1.4375 -4.101562 1.4375 -3.28125 C 1.4375 -2.445312 1.625 -1.789062 2 -1.3125 C 2.382812 -0.832031 2.898438 -0.59375 3.546875 -0.59375 C 4.191406 -0.59375 4.703125 -0.832031 5.078125 -1.3125 C 5.453125 -1.789062 5.640625 -2.445312 5.640625 -3.28125 C 5.640625 -4.101562 5.453125 -4.753906 5.078125 -5.234375 C 4.703125 -5.710938 4.191406 -5.953125 3.546875 -5.953125 Z M 3.546875 -6.6875 C 4.460938 -6.6875 5.195312 -6.375 5.75 -5.75 C 6.300781 -5.132812 6.578125 -4.3125 6.578125 -3.28125 C 6.578125 -2.238281 6.300781 -1.410156 5.75 -0.796875 C 5.195312 -0.179688 4.460938 0.125 3.546875 0.125 C 2.617188 0.125 1.878906 -0.179688 1.328125 -0.796875 C 0.773438 -1.410156 0.5 -2.238281 0.5 -3.28125 C 0.5 -4.3125 0.773438 -5.132812 1.328125 -5.75 C 1.878906 -6.375 2.617188 -6.6875 3.546875 -6.6875 Z M 3.546875 -6.6875 "/>
</symbol>
<symbol overflow="visible" id="glyph0-2">
<path style="stroke:none;" d="M 0.890625 -6.5625 L 2.078125 -6.5625 L 4.984375 -1.078125 L 4.984375 -6.5625 L 5.84375 -6.5625 L 5.84375 0 L 4.65625 0 L 1.75 -5.484375 L 1.75 0 L 0.890625 0 Z M 0.890625 -6.5625 "/>
</symbol>
<symbol overflow="visible" id="glyph0-3">
<path style="stroke:none;" d="M 0.890625 -6.5625 L 1.765625 -6.5625 L 1.765625 -3.875 L 5 -3.875 L 5 -6.5625 L 5.890625 -6.5625 L 5.890625 0 L 5 0 L 5 -3.125 L 1.765625 -3.125 L 1.765625 0 L 0.890625 0 Z M 0.890625 -6.5625 "/>
</symbol>
</g>
</defs>
<g id="surface31729">
<rect x="0" y="0" width="300" height="300" style="fill:rgb(100%,100%,100%);fill-opacity:1;stroke:none;"/>
<path style="fill:none;stroke-width:1.2;stroke-linecap:butt;stroke-linejoin:miter;stroke:rgb(0%,0%,0%);stroke-opacity:1;stroke-miterlimit:10;" d="M 264.75 137.890625 L 258.988281 121.410156 "/>
<path style="fill:none;stroke-width:1.2;stroke-linecap:butt;stroke-linejoin:miter;stroke:rgb(0%,0%,0%);stroke-opacity:1;stroke-miterlimit:10;" d="M 250.855469 148.464844 L 264.75 137.890625 "/>
<path style="fill:none;stroke-width:1.2;stroke-linecap:butt;stroke-linejoin:miter;stroke:rgb(0%,0%,0%);stroke-opacity:1;stroke-miterlimit:10;" d="M 258.988281 121.410156 L 241.53125 121.796875 "/>
<path style="fill:none;stroke-width:1.2;stroke-linecap:butt;stroke-linejoin:miter;stroke:rgb(0%,0%,0%);stroke-opacity:1;stroke-miterlimit:10;" d="M 241.53125 121.796875 L 236.507812 138.519531 "/>
<path style="fill:none;stroke-width:1.2;stroke-linecap:butt;stroke-linejoin:miter;stroke:rgb(0%,0%,0%);stroke-opacity:1;stroke-miterlimit:10;" d="M 236.507812 138.519531 L 250.855469 148.464844 "/>
<path style="fill:none;stroke-width:1.2;stroke-linecap:butt;stroke-linejoin:miter;stroke:rgb(0%,0%,0%);stroke-opacity:1;stroke-miterlimit:10;" d="M 236.507812 138.519531 L 223.273438 127.125 "/>
<path style="fill:none;stroke-width:1.2;stroke-linecap:butt;stroke-linejoin:miter;stroke:rgb(0%,0%,0%);stroke-opacity:1;stroke-miterlimit:10;" d="M 233.257812 155.671875 L 236.507812 138.519531 "/>
<path style="fill:none;stroke-width:1.2;stroke-linecap:butt;stroke-linejoin:miter;stroke:rgb(0%,0%,0%);stroke-opacity:1;stroke-miterlimit:10;" d="M 223.273438 127.125 L 206.792969 132.890625 "/>
<path style="fill:none;stroke-width:1.2;stroke-linecap:butt;stroke-linejoin:miter;stroke:rgb(0%,0%,0%);stroke-opacity:1;stroke-miterlimit:10;" d="M 208.132812 131.332031 L 201.519531 125.636719 "/>
<path style="fill:none;stroke-width:1.2;stroke-linecap:butt;stroke-linejoin:miter;stroke:rgb(100%,0%,0%);stroke-opacity:1;stroke-miterlimit:10;" d="M 201.519531 125.636719 L 194.902344 119.941406 "/>
<path style="fill:none;stroke-width:1.2;stroke-linecap:butt;stroke-linejoin:miter;stroke:rgb(0%,0%,0%);stroke-opacity:1;stroke-miterlimit:10;" d="M 205.453125 134.445312 L 198.839844 128.75 "/>
<path style="fill:none;stroke-width:1.2;stroke-linecap:butt;stroke-linejoin:miter;stroke:rgb(100%,0%,0%);stroke-opacity:1;stroke-miterlimit:10;" d="M 198.839844 128.75 L 192.222656 123.054688 "/>
<path style="fill:none;stroke-width:1.2;stroke-linecap:butt;stroke-linejoin:miter;stroke:rgb(0%,0%,0%);stroke-opacity:1;stroke-miterlimit:10;" d="M 206.792969 132.890625 L 205.167969 141.46875 "/>
<path style="fill:none;stroke-width:1.2;stroke-linecap:butt;stroke-linejoin:miter;stroke:rgb(0%,0%,100%);stroke-opacity:1;stroke-miterlimit:10;" d="M 205.167969 141.46875 L 203.542969 150.042969 "/>
<path style=" stroke:none;fill-rule:nonzero;fill:rgb(100%,100%,100%);fill-opacity:1;" d="M 185.5625 116 L 193.5625 116 L 193.5625 127 L 185.5625 127 Z M 185.5625 116 "/>
<g style="fill:rgb(100%,0%,0%);fill-opacity:1;">
  <use xlink:href="#glyph0-1" x="185.5625" y="124.663086"/>
</g>
<path style="fill:none;stroke-width:1.2;stroke-linecap:butt;stroke-linejoin:miter;stroke:rgb(0%,0%,100%);stroke-opacity:1;stroke-miterlimit:10;" d="M 203.542969 150.042969 L 210.160156 155.742188 "/>
<path style="fill:none;stroke-width:1.2;stroke-linecap:butt;stroke-linejoin:miter;stroke:rgb(0%,0%,0%);stroke-opacity:1;stroke-miterlimit:10;" d="M 210.160156 155.742188 L 216.777344 161.4375 "/>
<path style="fill:none;stroke-width:1.2;stroke-linecap:butt;stroke-linejoin:miter;stroke:rgb(0%,0%,100%);stroke-opacity:1;stroke-miterlimit:10;" d="M 203.542969 150.042969 L 195.304688 152.925781 "/>
<path style="fill:none;stroke-width:1.2;stroke-linecap:butt;stroke-linejoin:miter;stroke:rgb(0%,0%,0%);stroke-opacity:1;stroke-miterlimit:10;" d="M 195.304688 152.925781 L 187.0625 155.808594 "/>
<path style=" stroke:none;fill-rule:nonzero;fill:rgb(100%,100%,100%);fill-opacity:1;" d="M 200.542969 144.542969 L 207.542969 144.542969 L 207.542969 155.542969 L 200.542969 155.542969 Z M 200.542969 144.542969 "/>
<g style="fill:rgb(0%,0%,100%);fill-opacity:1;">
  <use xlink:href="#glyph0-2" x="200.542969" y="153.206055"/>
</g>
<path style="fill:none;stroke-width:1.2;stroke-linecap:butt;stroke-linejoin:miter;stroke:rgb(0%,0%,0%);stroke-opacity:1;stroke-miterlimit:10;" d="M 214.757812 161.054688 L 213.132812 169.632812 "/>
<path style="fill:none;stroke-width:1.2;stroke-linecap:butt;stroke-linejoin:miter;stroke:rgb(100%,0%,0%);stroke-opacity:1;stroke-miterlimit:10;" d="M 213.132812 169.632812 L 211.507812 178.207031 "/>
<path style="fill:none;stroke-width:1.2;stroke-linecap:butt;stroke-linejoin:miter;stroke:rgb(0%,0%,0%);stroke-opacity:1;stroke-miterlimit:10;" d="M 218.792969 161.820312 L 217.167969 170.394531 "/>
<path style="fill:none;stroke-width:1.2;stroke-linecap:butt;stroke-linejoin:miter;stroke:rgb(100%,0%,0%);stroke-opacity:1;stroke-miterlimit:10;" d="M 217.167969 170.394531 L 215.542969 178.972656 "/>
<path style="fill:none;stroke-width:1.2;stroke-linecap:butt;stroke-linejoin:miter;stroke:rgb(0%,0%,0%);stroke-opacity:1;stroke-miterlimit:10;" d="M 216.777344 161.4375 L 233.257812 155.671875 "/>
<path style=" stroke:none;fill-rule:nonzero;fill:rgb(100%,100%,100%);fill-opacity:1;" d="M 209.527344 173.089844 L 217.527344 173.089844 L 217.527344 184.089844 L 209.527344 184.089844 Z M 209.527344 173.089844 "/>
<g style="fill:rgb(100%,0%,0%);fill-opacity:1;">
  <use xlink:href="#glyph0-1" x="209.527344" y="181.75293"/>
</g>
<path style="fill:none;stroke-width:1.2;stroke-linecap:butt;stroke-linejoin:miter;stroke:rgb(0%,0%,0%);stroke-opacity:1;stroke-miterlimit:10;" d="M 187.0625 155.808594 L 173.832031 144.417969 "/>
<path style="fill:none;stroke-width:1.2;stroke-linecap:butt;stroke-linejoin:miter;stroke:rgb(0%,0%,0%);stroke-opacity:1;stroke-miterlimit:10;" d="M 173.832031 144.417969 L 157.351562 150.179688 "/>
<path style="fill:none;stroke-width:1.2;stroke-linecap:butt;stroke-linejoin:miter;stroke:rgb(0%,0%,0%);stroke-opacity:1;stroke-miterlimit:10;" d="M 157.351562 150.179688 L 144.117188 138.789062 "/>
<path style="fill:none;stroke-width:1.2;stroke-linecap:butt;stroke-linejoin:miter;stroke:rgb(0%,0%,0%);stroke-opacity:1;stroke-miterlimit:10;" d="M 144.117188 138.789062 L 135.878906 141.667969 "/>
<path style="fill:none;stroke-width:1.2;stroke-linecap:butt;stroke-linejoin:miter;stroke:rgb(0%,0%,100%);stroke-opacity:1;stroke-miterlimit:10;" d="M 135.878906 141.667969 L 127.636719 144.550781 "/>
<path style="fill:none;stroke-width:1.2;stroke-linecap:butt;stroke-linejoin:miter;stroke:rgb(0%,0%,100%);stroke-opacity:1;stroke-miterlimit:10;" d="M 127.636719 144.550781 L 121.023438 138.855469 "/>
<path style="fill:none;stroke-width:1.2;stroke-linecap:butt;stroke-linejoin:miter;stroke:rgb(0%,0%,0%);stroke-opacity:1;stroke-miterlimit:10;" d="M 121.023438 138.855469 L 114.40625 133.160156 "/>
<path style=" stroke:none;fill-rule:nonzero;fill:rgb(100%,100%,100%);fill-opacity:1;" d="M 120.636719 139.050781 L 134.636719 139.050781 L 134.636719 150.050781 L 120.636719 150.050781 Z M 120.636719 139.050781 "/>
<g style="fill:rgb(0%,0%,100%);fill-opacity:1;">
  <use xlink:href="#glyph0-2" x="120.636719" y="147.713867"/>
  <use xlink:href="#glyph0-3" x="127.614258" y="147.713867"/>
</g>
<path style=" stroke:none;fill-rule:nonzero;fill:rgb(0%,0%,0%);fill-opacity:1;" d="M 97.925781 138.921875 L 115.421875 136.066406 L 113.390625 130.25 Z M 97.925781 138.921875 "/>
<path style="fill:none;stroke-width:1.2;stroke-linecap:butt;stroke-linejoin:miter;stroke:rgb(0%,0%,0%);stroke-opacity:1;stroke-miterlimit:10;" d="M 97.925781 138.921875 L 94.675781 156.078125 "/>
<path style="fill:none;stroke-width:1.2;stroke-linecap:butt;stroke-linejoin:miter;stroke:rgb(100%,0%,0%);stroke-opacity:1;stroke-miterlimit:10;" d="M 84.695312 127.53125 L 91.308594 133.226562 "/>
<path style="fill:none;stroke-width:1.2;stroke-linecap:butt;stroke-linejoin:miter;stroke:rgb(0%,0%,0%);stroke-opacity:1;stroke-miterlimit:10;" d="M 91.308594 133.226562 L 97.925781 138.921875 "/>
<path style="fill:none;stroke-width:1.2;stroke-linecap:butt;stroke-linejoin:miter;stroke:rgb(0%,0%,0%);stroke-opacity:1;stroke-miterlimit:10;" d="M 94.675781 156.078125 L 86.433594 158.957031 "/>
<path style="fill:none;stroke-width:1.2;stroke-linecap:butt;stroke-linejoin:miter;stroke:rgb(100%,0%,0%);stroke-opacity:1;stroke-miterlimit:10;" d="M 86.433594 158.957031 L 78.195312 161.839844 "/>
<path style="fill:none;stroke-width:1.2;stroke-linecap:butt;stroke-linejoin:miter;stroke:rgb(100%,0%,0%);stroke-opacity:1;stroke-miterlimit:10;" d="M 78.195312 161.839844 L 71.578125 156.144531 "/>
<path style="fill:none;stroke-width:1.2;stroke-linecap:butt;stroke-linejoin:miter;stroke:rgb(0%,0%,0%);stroke-opacity:1;stroke-miterlimit:10;" d="M 71.578125 156.144531 L 64.960938 150.449219 "/>
<path style=" stroke:none;fill-rule:nonzero;fill:rgb(100%,100%,100%);fill-opacity:1;" d="M 74.195312 156.339844 L 82.195312 156.339844 L 82.195312 167.339844 L 74.195312 167.339844 Z M 74.195312 156.339844 "/>
<g style="fill:rgb(100%,0%,0%);fill-opacity:1;">
  <use xlink:href="#glyph0-1" x="74.195312" y="165.00293"/>
</g>
<path style="fill:none;stroke-width:1.2;stroke-linecap:butt;stroke-linejoin:miter;stroke:rgb(0%,0%,0%);stroke-opacity:1;stroke-miterlimit:10;" d="M 64.960938 150.449219 L 48.480469 156.210938 "/>
<path style="fill:none;stroke-width:1.2;stroke-linecap:butt;stroke-linejoin:miter;stroke:rgb(0%,0%,0%);stroke-opacity:1;stroke-miterlimit:10;" d="M 61.957031 147.148438 L 48.773438 151.757812 "/>
<path style="fill:none;stroke-width:1.2;stroke-linecap:butt;stroke-linejoin:miter;stroke:rgb(0%,0%,0%);stroke-opacity:1;stroke-miterlimit:10;" d="M 68.210938 133.292969 L 64.960938 150.449219 "/>
<path style="fill:none;stroke-width:1.2;stroke-linecap:butt;stroke-linejoin:miter;stroke:rgb(0%,0%,0%);stroke-opacity:1;stroke-miterlimit:10;" d="M 48.480469 156.210938 L 35.25 144.820312 "/>
<path style="fill:none;stroke-width:1.2;stroke-linecap:butt;stroke-linejoin:miter;stroke:rgb(0%,0%,0%);stroke-opacity:1;stroke-miterlimit:10;" d="M 35.25 144.820312 L 38.5 127.664062 "/>
<path style="fill:none;stroke-width:1.2;stroke-linecap:butt;stroke-linejoin:miter;stroke:rgb(0%,0%,0%);stroke-opacity:1;stroke-miterlimit:10;" d="M 39.613281 143.867188 L 42.210938 130.144531 "/>
<path style="fill:none;stroke-width:1.2;stroke-linecap:butt;stroke-linejoin:miter;stroke:rgb(0%,0%,0%);stroke-opacity:1;stroke-miterlimit:10;" d="M 38.5 127.664062 L 54.980469 121.902344 "/>
<path style="fill:none;stroke-width:1.2;stroke-linecap:butt;stroke-linejoin:miter;stroke:rgb(0%,0%,0%);stroke-opacity:1;stroke-miterlimit:10;" d="M 54.980469 121.902344 L 68.210938 133.292969 "/>
<path style="fill:none;stroke-width:1.2;stroke-linecap:butt;stroke-linejoin:miter;stroke:rgb(0%,0%,0%);stroke-opacity:1;stroke-miterlimit:10;" d="M 53.625 126.15625 L 64.207031 135.269531 "/>
<path style="fill:none;stroke-width:1.2;stroke-linecap:butt;stroke-linejoin:miter;stroke:rgb(0%,0%,0%);stroke-opacity:1;stroke-miterlimit:10;" d="M 68.210938 133.292969 L 76.453125 130.414062 "/>
<path style="fill:none;stroke-width:1.2;stroke-linecap:butt;stroke-linejoin:miter;stroke:rgb(100%,0%,0%);stroke-opacity:1;stroke-miterlimit:10;" d="M 76.453125 130.414062 L 84.695312 127.53125 "/>
<path style=" stroke:none;fill-rule:nonzero;fill:rgb(100%,100%,100%);fill-opacity:1;" d="M 80.695312 122.03125 L 88.695312 122.03125 L 88.695312 133.03125 L 80.695312 133.03125 Z M 80.695312 122.03125 "/>
<g style="fill:rgb(100%,0%,0%);fill-opacity:1;">
  <use xlink:href="#glyph0-1" x="80.695312" y="130.694336"/>
</g>
</g>
</svg>

<svg xmlns="http://www.w3.org/2000/svg" xmlns:xlink="http://www.w3.org/1999/xlink" width="300pt" height="300pt" viewBox="0 0 300 300"><defs><symbol overflow="visible"><path d="M.453 1.594v-7.938h4.5v7.938zm.5-.5h3.5v-6.938h-3.5zm0 0"/></symbol><symbol overflow="visible" id="a"><path d="M3.547-5.953c-.65 0-1.164.242-1.547.72-.375.48-.563 1.13-.563 1.952 0 .835.188 1.49.563 1.967.383.48.898.72 1.547.72.644 0 1.156-.24 1.53-.72.376-.476.564-1.132.564-1.968 0-.822-.187-1.474-.562-1.954-.375-.477-.887-.72-1.53-.72zm0-.734c.914 0 1.648.312 2.203.937.55.617.828 1.438.828 2.47 0 1.042-.277 1.87-.828 2.483-.555.617-1.29.922-2.203.922-.93 0-1.668-.305-2.22-.922C.774-1.41.5-2.237.5-3.28c0-1.033.273-1.853.828-2.47.55-.625 1.29-.938 2.22-.938zm0 0"/></symbol><symbol overflow="visible" id="b"><path d="M.89-6.563H2.08l2.906 5.485v-5.484h.86V0H4.656L1.75-5.484V0H.89zm0 0"/></symbol><symbol overflow="visible" id="c"><path d="M.89-6.563h.876v2.688H5v-2.688h.89V0H5v-3.125H1.766V0H.89zm0 0"/></symbol></defs><g><path fill="#fff" d="M0 0h300v300H0z"/><path d="M264.75 137.89l-5.762-16.48M250.855 148.465l13.895-10.574M258.988 121.41l-17.457.387M241.53 121.797l-5.022 16.723M236.508 138.52l14.347 9.945M236.508 138.52l-13.235-11.395M233.258 155.672l3.25-17.152M223.273 127.125l-16.48 5.766M208.133 131.332l-6.613-5.695" stroke-width="1.2" stroke="#000" stroke-miterlimit="10" fill="none"/><path d="M201.52 125.637l-6.618-5.696" stroke-width="1.2" stroke="#f00" stroke-miterlimit="10" fill="none"/><path d="M205.453 134.445l-6.613-5.695" stroke-width="1.2" stroke="#000" stroke-miterlimit="10" fill="none"/><path d="M198.84 128.75l-6.617-5.695" stroke-width="1.2" stroke="#f00" stroke-miterlimit="10" fill="none"/><path d="M206.793 132.89l-1.625 8.58" stroke-width="1.2" stroke="#000" stroke-miterlimit="10" fill="none"/><path d="M205.168 141.47l-1.625 8.573" stroke-width="1.2" stroke="#00f" stroke-miterlimit="10" fill="none"/><path d="M185.563 116h8v11h-8zm0 0" fill="#fff"/><use xlink:href="#a" x="185.563" y="124.663" fill="#f00"/><path d="M203.543 150.043l6.617 5.7" stroke-width="1.2" stroke="#00f" stroke-miterlimit="10" fill="none"/><path d="M210.16 155.742l6.617 5.696" stroke-width="1.2" stroke="#000" stroke-miterlimit="10" fill="none"/><path d="M203.543 150.043l-8.238 2.883" stroke-width="1.2" stroke="#00f" stroke-miterlimit="10" fill="none"/><path d="M195.305 152.926l-8.243 2.883" stroke-width="1.2" stroke="#000" stroke-miterlimit="10" fill="none"/><path d="M200.543 144.543h7v11h-7zm0 0" fill="#fff"/><use xlink:href="#b" x="200.543" y="153.206" fill="#00f"/><path d="M214.758 161.055l-1.625 8.578" stroke-width="1.2" stroke="#000" stroke-miterlimit="10" fill="none"/><path d="M213.133 169.633l-1.625 8.574" stroke-width="1.2" stroke="#f00" stroke-miterlimit="10" fill="none"/><path d="M218.793 161.82l-1.625 8.575" stroke-width="1.2" stroke="#000" stroke-miterlimit="10" fill="none"/><path d="M217.168 170.395l-1.625 8.578" stroke-width="1.2" stroke="#f00" stroke-miterlimit="10" fill="none"/><path d="M216.777 161.438l16.48-5.766" stroke-width="1.2" stroke="#000" stroke-miterlimit="10" fill="none"/><path d="M209.527 173.09h8v11h-8zm0 0" fill="#fff"/><use xlink:href="#a" x="209.527" y="181.753" fill="#f00"/><path d="M187.063 155.81l-13.23-11.392M173.832 144.418l-16.48 5.762M157.352 150.18l-13.235-11.39M144.117 138.79l-8.238 2.878" stroke-width="1.2" stroke="#000" stroke-miterlimit="10" fill="none"/><path d="M135.88 141.668l-8.243 2.883M127.637 144.55l-6.614-5.695" stroke-width="1.2" stroke="#00f" stroke-miterlimit="10" fill="none"/><path d="M121.023 138.855l-6.617-5.695" stroke-width="1.2" stroke="#000" stroke-miterlimit="10" fill="none"/><path d="M120.637 139.05h14v11h-14zm0 0" fill="#fff"/><g fill="#00f"><use xlink:href="#b" x="120.637" y="147.714"/><use xlink:href="#c" x="127.614" y="147.714"/></g><path d="M97.926 138.922l17.496-2.856-2.03-5.816zm0 0"/><path d="M97.926 138.922l-3.25 17.156" stroke-width="1.2" stroke="#000" stroke-miterlimit="10" fill="none"/><path d="M84.695 127.53l6.614 5.697" stroke-width="1.2" stroke="#f00" stroke-miterlimit="10" fill="none"/><path d="M91.31 133.227l6.616 5.695M94.676 156.078l-8.242 2.88" stroke-width="1.2" stroke="#000" stroke-miterlimit="10" fill="none"/><path d="M86.434 158.957l-8.24 2.883M78.195 161.84l-6.617-5.695" stroke-width="1.2" stroke="#f00" stroke-miterlimit="10" fill="none"/><path d="M71.578 156.145l-6.617-5.696" stroke-width="1.2" stroke="#000" stroke-miterlimit="10" fill="none"/><path d="M74.195 156.34h8v11h-8zm0 0" fill="#fff"/><use xlink:href="#a" x="74.195" y="165.003" fill="#f00"/><path d="M64.96 150.45l-16.48 5.76M61.957 147.148l-13.184 4.61M68.21 133.293l-3.25 17.156M48.48 156.21l-13.23-11.39M35.25 144.82l3.25-17.156M39.613 143.867l2.598-13.722M38.5 127.664l16.48-5.762M54.98 121.902l13.23 11.39M53.625 126.156l10.582 9.114M68.21 133.293l8.243-2.88" stroke-width="1.2" stroke="#000" stroke-miterlimit="10" fill="none"/><path d="M76.453 130.414l8.242-2.883" stroke-width="1.2" stroke="#f00" stroke-miterlimit="10" fill="none"/><path d="M80.695 122.03h8v11h-8zm0 0" fill="#fff"/><use xlink:href="#a" x="80.695" y="130.694" fill="#f00"/></g></svg>
